X: 1182
M: 6/8
L: 1/8
K: D
f |\
a2a fga | fga b3 | g2g efg | efg a3 |\
f2f def | def g3 | b2b agf | efd cBA |
a2a fga | fga b3 | g2g efg | efg a3 |\
f2f def | def g3 | b2b agf | edc "^da Capo"d2 |]
Promenade half round.

